;FLAVOR:UltiGCode
;TIME:309
;MATERIAL:462
;MATERIAL2:0
;NOZZLE_DIAMETER:0.4
;Generated with Cura_SteamEngine 3.2.1
M82 ;absolute extrusion mode

;LAYER_COUNT:29
;LAYER:0
M107
G0 F3600 X92.623 Y104.099 Z0.3
;TYPE:SKIRT
G1 F1800 X93.222 Y103.584 E0.09479
G1 X93.87 Y103.133 E0.18953
G1 X94.561 Y102.749 E0.2844
G1 X95.286 Y102.437 E0.37911
G1 X96.039 Y102.2 E0.47384
G1 X96.813 Y102.041 E0.56866
G1 X97.598 Y101.96 E0.66336
G1 X98 Y101.95 E0.71162
G1 X110.199 Y101.95 E2.1755
G1 X110.561 Y101.749 E2.22518
G1 X111.286 Y101.437 E2.3199
G1 X112.039 Y101.2 E2.41463
G1 X112.813 Y101.041 E2.50945
G1 X113.598 Y100.96 E2.60415
G1 X114 Y100.95 E2.6524
G1 X125 Y100.95 E3.9724
G1 X125.789 Y100.99 E4.0672
G1 X126.569 Y101.109 E4.16189
G1 X127.334 Y101.307 E4.25671
G1 X128.074 Y101.581 E4.3514
G1 X128.783 Y101.929 E4.44618
G1 X129.454 Y102.347 E4.54104
G1 X130.078 Y102.83 E4.63574
G1 X130.651 Y103.373 E4.73047
G1 X131.166 Y103.972 E4.82526
G1 X131.617 Y104.62 E4.92
G1 X132.001 Y105.311 E5.01486
G1 X132.313 Y106.036 E5.10958
G1 X132.55 Y106.789 E5.20431
G1 X132.709 Y107.563 E5.29913
G1 X132.79 Y108.348 E5.39383
G1 X132.8 Y108.75 E5.44208
G1 X132.8 Y114.25 E6.10208
G1 X132.76 Y115.039 E6.19688
G1 X132.641 Y115.819 E6.29157
G1 X132.443 Y116.584 E6.38639
G1 X132.169 Y117.324 E6.48108
G1 X131.821 Y118.033 E6.57586
G1 X131.403 Y118.704 E6.67073
G1 X130.92 Y119.328 E6.76542
G1 X130.377 Y119.901 E6.86015
G1 X129.778 Y120.416 E6.95494
G1 X129.13 Y120.867 E7.04968
G1 X128.439 Y121.251 E7.14454
G1 X127.714 Y121.563 E7.23926
G1 X126.961 Y121.8 E7.33399
G1 X126.187 Y121.959 E7.42881
G1 X125.402 Y122.04 E7.52351
G1 X125 Y122.05 E7.57176
G1 X114 Y122.05 E8.89176
G1 X113.211 Y122.01 E8.98656
G1 X112.431 Y121.891 E9.08125
G1 X111.666 Y121.693 E9.17607
G1 X110.926 Y121.419 E9.27076
G1 X110.217 Y121.071 E9.36554
G1 X110.183 Y121.05 E9.37034
G1 X98 Y121.05 E10.8323
G1 X97.211 Y121.01 E10.9271
G1 X96.431 Y120.891 E11.02178
G1 X95.666 Y120.693 E11.1166
G1 X94.926 Y120.419 E11.2113
G1 X94.217 Y120.071 E11.30607
G1 X93.546 Y119.653 E11.40094
G1 X92.922 Y119.17 E11.49563
G1 X92.349 Y118.627 E11.59036
G1 X91.834 Y118.028 E11.68515
G1 X91.383 Y117.38 E11.77989
G1 X90.999 Y116.689 E11.87476
G1 X90.687 Y115.964 E11.96947
G1 X90.45 Y115.211 E12.0642
G1 X90.291 Y114.437 E12.15902
G1 X90.21 Y113.652 E12.25372
G1 X90.2 Y113.25 E12.30198
G1 X90.2 Y111.9 E12.46398
G1 X90.217 Y111.568 E12.50387
G1 X90.21 Y111.502 E12.51183
G1 X90.2 Y111.1 E12.56009
G1 X90.2 Y109.75 E12.72209
G1 X90.24 Y108.961 E12.81689
G1 X90.359 Y108.181 E12.91157
G1 X90.557 Y107.416 E13.0064
G1 X90.831 Y106.676 E13.10109
G1 X91.179 Y105.967 E13.19586
G1 X91.597 Y105.296 E13.29073
G1 X92.08 Y104.672 E13.38542
G1 X92.623 Y104.099 E13.48015
G0 F3600 X93.016 Y104.28
G1 F1800 X93.611 Y103.792 E13.57249
G1 X94.253 Y103.369 E13.66475
G1 X94.936 Y103.014 E13.75712
G1 X95.651 Y102.733 E13.84931
G1 X96.393 Y102.527 E13.94172
G1 X97.151 Y102.399 E14.03397
G1 X98 Y102.35 E14.13602
G1 X110.29 Y102.35 E15.61082
G1 X110.936 Y102.014 E15.6982
G1 X111.651 Y101.733 E15.79038
G1 X112.393 Y101.527 E15.88279
G1 X113.151 Y101.399 E15.97504
G1 X114 Y101.35 E16.07709
G1 X125 Y101.35 E17.39709
G1 X125.768 Y101.39 E17.48937
G1 X126.528 Y101.509 E17.58168
G1 X127.271 Y101.707 E17.67396
G1 X127.99 Y101.981 E17.76629
G1 X128.676 Y102.328 E17.85854
G1 X129.323 Y102.744 E17.95084
G1 X129.923 Y103.225 E18.04312
G1 X130.47 Y103.766 E18.13545
G1 X130.958 Y104.361 E18.22779
G1 X131.381 Y105.003 E18.32005
G1 X131.736 Y105.686 E18.41242
G1 X132.017 Y106.401 E18.50461
G1 X132.223 Y107.143 E18.59701
G1 X132.351 Y107.901 E18.68926
G1 X132.4 Y108.75 E18.79131
G1 X132.4 Y114.25 E19.45131
G1 X132.36 Y115.018 E19.5436
G1 X132.241 Y115.778 E19.63591
G1 X132.043 Y116.521 E19.72818
G1 X131.769 Y117.24 E19.82051
G1 X131.422 Y117.926 E19.91276
G1 X131.006 Y118.573 E20.00507
G1 X130.525 Y119.173 E20.09735
G1 X129.984 Y119.72 E20.18967
G1 X129.389 Y120.208 E20.28201
G1 X128.747 Y120.631 E20.37427
G1 X128.064 Y120.986 E20.46664
G1 X127.349 Y121.267 E20.55883
G1 X126.607 Y121.473 E20.65124
G1 X125.849 Y121.601 E20.74349
G1 X125 Y121.65 E20.84553
G1 X114 Y121.65 E22.16553
G1 X113.232 Y121.61 E22.25782
G1 X112.472 Y121.491 E22.35013
G1 X111.729 Y121.293 E22.4424
G1 X111.01 Y121.019 E22.53474
G1 X110.324 Y120.672 E22.62699
G1 X110.29 Y120.65 E22.63185
G1 X98 Y120.65 E24.10665
G1 X97.232 Y120.61 E24.19893
G1 X96.472 Y120.491 E24.29124
G1 X95.729 Y120.293 E24.38351
G1 X95.01 Y120.019 E24.47585
G1 X94.324 Y119.672 E24.5681
G1 X93.677 Y119.256 E24.6604
G1 X93.077 Y118.775 E24.75268
G1 X92.53 Y118.234 E24.845
G1 X92.042 Y117.639 E24.93735
G1 X91.619 Y116.997 E25.02961
G1 X91.264 Y116.314 E25.12198
G1 X90.983 Y115.599 E25.21416
G1 X90.777 Y114.857 E25.30657
G1 X90.649 Y114.099 E25.39882
G1 X90.6 Y113.25 E25.50087
G1 X90.6 Y111.9 E25.66287
G1 X90.622 Y111.479 E25.71346
G1 X90.6 Y111.1 E25.75902
G1 X90.6 Y109.75 E25.92102
G1 X90.64 Y108.982 E26.0133
G1 X90.759 Y108.222 E26.10561
G1 X90.957 Y107.479 E26.19788
G1 X91.231 Y106.76 E26.29022
G1 X91.578 Y106.074 E26.38247
G1 X91.994 Y105.427 E26.47477
G1 X92.475 Y104.827 E26.56705
G1 X93.016 Y104.28 E26.65937
G0 F3600 X93.408 Y104.466
G1 F1800 X93.998 Y104.007 E26.74907
G1 X94.634 Y103.612 E26.83892
G1 X95.308 Y103.288 E26.92866
G1 X96.013 Y103.038 E27.01842
G1 X96.741 Y102.864 E27.10824
G1 X97.483 Y102.769 E27.19801
G1 X98 Y102.75 E27.26009
G1 X110.412 Y102.75 E28.74953
G1 X110.634 Y102.612 E28.78089
G1 X111.308 Y102.288 E28.87063
G1 X112.013 Y102.038 E28.9604
G1 X112.741 Y101.864 E29.05022
G1 X113.483 Y101.769 E29.13998
G1 X114 Y101.75 E29.20207
G1 X125 Y101.75 E30.52207
G1 X125.747 Y101.79 E30.61183
G1 X126.485 Y101.909 E30.70154
G1 X127.207 Y102.107 E30.79138
G1 X127.903 Y102.38 E30.88109
G1 X128.566 Y102.727 E30.97089
G1 X129.189 Y103.142 E31.06072
G1 X129.763 Y103.621 E31.15043
G1 X130.284 Y104.158 E31.24022
G1 X130.743 Y104.748 E31.32992
G1 X131.138 Y105.384 E31.41976
G1 X131.462 Y106.058 E31.5095
G1 X131.712 Y106.763 E31.59926
G1 X131.886 Y107.491 E31.68908
G1 X131.981 Y108.233 E31.77885
G1 X132 Y108.75 E31.84093
G1 X132 Y114.25 E32.50093
G1 X131.96 Y114.997 E32.5907
G1 X131.841 Y115.735 E32.6804
G1 X131.643 Y116.457 E32.77024
G1 X131.37 Y117.153 E32.85996
G1 X131.023 Y117.816 E32.94975
G1 X130.608 Y118.439 E33.03958
G1 X130.129 Y119.013 E33.1293
G1 X129.592 Y119.534 E33.21908
G1 X129.002 Y119.993 E33.30878
G1 X128.366 Y120.388 E33.39862
G1 X127.692 Y120.712 E33.48836
G1 X126.987 Y120.962 E33.57812
G1 X126.259 Y121.136 E33.66795
G1 X125.517 Y121.231 E33.75771
G1 X125 Y121.25 E33.81979
G1 X114 Y121.25 E35.13979
G1 X113.253 Y121.21 E35.22956
G1 X112.515 Y121.091 E35.31927
G1 X111.793 Y120.893 E35.40911
G1 X111.097 Y120.62 E35.49882
G1 X110.434 Y120.273 E35.58862
G1 X110.399 Y120.25 E35.59364
G1 X98 Y120.25 E37.08152
G1 X97.253 Y120.21 E37.17129
G1 X96.515 Y120.091 E37.261
G1 X95.793 Y119.893 E37.35084
G1 X95.097 Y119.62 E37.44055
G1 X94.434 Y119.273 E37.53035
G1 X93.811 Y118.858 E37.62018
G1 X93.237 Y118.379 E37.70989
G1 X92.716 Y117.842 E37.79967
G1 X92.257 Y117.252 E37.88938
G1 X91.862 Y116.616 E37.97922
G1 X91.538 Y115.942 E38.06896
G1 X91.288 Y115.237 E38.15872
G1 X91.114 Y114.509 E38.24854
G1 X91.019 Y113.767 E38.33831
G1 X91 Y113.25 E38.40039
G1 X91 Y111.9 E38.56239
G1 X91.017 Y111.574 E38.60156
G1 X91 Y111.1 E38.65848
G1 X91 Y109.75 E38.82048
G1 X91.04 Y109.003 E38.91025
G1 X91.159 Y108.265 E38.99995
G1 X91.357 Y107.543 E39.08979
G1 X91.63 Y106.847 E39.1795
G1 X91.977 Y106.184 E39.2693
G1 X92.392 Y105.561 E39.35913
G1 X92.871 Y104.987 E39.44884
G1 X93.408 Y104.466 E39.53863
G0 F3600 X93.265 Y105.152
G1 F1800 X93.799 Y104.659 E39.62584
G1 X94.384 Y104.229 E39.71297
G1 X95.013 Y103.865 E39.80017
G1 X95.678 Y103.572 E39.88738
G1 X96.371 Y103.354 E39.97455
G1 X97.083 Y103.214 E40.06163
G1 X98 Y103.15 E40.17194
G1 X110.521 Y103.15 E41.67446
G1 X111.013 Y102.865 E41.74269
G1 X111.678 Y102.572 E41.82989
G1 X112.371 Y102.354 E41.91707
G1 X113.083 Y102.214 E42.00414
G1 X114 Y102.15 E42.11445
G1 X125 Y102.15 E43.43445
G1 X125.725 Y102.19 E43.52158
G1 X126.442 Y102.309 E43.6088
G1 X127.141 Y102.507 E43.69598
G1 X127.814 Y102.78 E43.78313
G1 X128.453 Y103.125 E43.87027
G1 X129.05 Y103.539 E43.95745
G1 X129.598 Y104.015 E44.04456
G1 X130.091 Y104.549 E44.13177
G1 X130.521 Y105.134 E44.2189
G1 X130.885 Y105.763 E44.3061
G1 X131.178 Y106.428 E44.39331
G1 X131.396 Y107.121 E44.48048
G1 X131.536 Y107.833 E44.56756
G1 X131.6 Y108.75 E44.67787
G1 X131.6 Y114.25 E45.33787
G1 X131.56 Y114.975 E45.425
G1 X131.441 Y115.692 E45.51222
G1 X131.243 Y116.391 E45.5994
G1 X130.97 Y117.064 E45.68655
G1 X130.625 Y117.703 E45.77369
G1 X130.211 Y118.3 E45.86087
G1 X129.735 Y118.848 E45.94797
G1 X129.201 Y119.341 E46.03519
G1 X128.616 Y119.771 E46.12231
G1 X127.987 Y120.135 E46.20952
G1 X127.322 Y120.428 E46.29672
G1 X126.629 Y120.646 E46.3839
G1 X125.917 Y120.786 E46.47098
G1 X125 Y120.85 E46.58128
G1 X114 Y120.85 E47.90128
G1 X113.275 Y120.81 E47.98842
G1 X112.558 Y120.691 E48.07563
G1 X111.859 Y120.493 E48.16281
G1 X111.186 Y120.22 E48.24996
G1 X110.547 Y119.875 E48.33711
G1 X110.511 Y119.85 E48.34237
G1 X98 Y119.85 E49.84369
G1 X97.275 Y119.81 E49.93082
G1 X96.558 Y119.691 E50.01804
G1 X95.859 Y119.493 E50.10522
G1 X95.186 Y119.22 E50.19237
G1 X94.547 Y118.875 E50.27951
G1 X93.95 Y118.461 E50.36669
G1 X93.402 Y117.985 E50.45379
G1 X92.909 Y117.451 E50.54101
G1 X92.479 Y116.866 E50.62813
G1 X92.115 Y116.237 E50.71534
G1 X91.822 Y115.572 E50.80254
G1 X91.604 Y114.879 E50.88972
G1 X91.464 Y114.167 E50.97679
G1 X91.4 Y113.25 E51.0871
G1 X91.4 Y111.9 E51.2491
G1 X91.425 Y111.453 E51.30283
G1 X91.4 Y111.1 E51.34529
G1 X91.4 Y109.75 E51.50729
G1 X91.44 Y109.025 E51.59442
G1 X91.559 Y108.308 E51.68164
G1 X91.757 Y107.609 E51.76882
G1 X92.03 Y106.936 E51.85597
G1 X92.375 Y106.297 E51.94312
G1 X92.789 Y105.7 E52.0303
G1 X93.265 Y105.152 E52.1174
G0 F3600 X93.659 Y105.323
G1 F1800 X94.189 Y104.859 E52.20193
G1 X94.768 Y104.459 E52.28638
G1 X95.389 Y104.127 E52.37088
G1 X96.043 Y103.867 E52.45533
G1 X96.723 Y103.683 E52.53987
G1 X97.419 Y103.577 E52.62435
G1 X98 Y103.55 E52.69415
G1 X110.636 Y103.55 E54.21047
G1 X110.768 Y103.459 E54.2297
G1 X111.389 Y103.127 E54.31421
G1 X112.043 Y102.867 E54.39866
G1 X112.723 Y102.683 E54.48319
G1 X113.419 Y102.577 E54.56768
G1 X114 Y102.55 E54.63747
G1 X125 Y102.55 E55.95747
G1 X125.703 Y102.59 E56.04197
G1 X126.397 Y102.709 E56.12647
G1 X127.072 Y102.907 E56.21088
G1 X127.721 Y103.179 E56.29532
G1 X128.335 Y103.524 E56.37984
G1 X128.906 Y103.935 E56.46426
G1 X129.427 Y104.409 E56.54878
G1 X129.891 Y104.939 E56.63331
G1 X130.291 Y105.518 E56.71776
G1 X130.623 Y106.139 E56.80226
G1 X130.883 Y106.793 E56.88672
G1 X131.067 Y107.473 E56.97125
G1 X131.173 Y108.169 E57.05573
G1 X131.2 Y108.75 E57.12553
G1 X131.2 Y114.25 E57.78553
G1 X131.16 Y114.953 E57.87003
G1 X131.041 Y115.647 E57.95452
G1 X130.843 Y116.322 E58.03893
G1 X130.571 Y116.971 E58.12338
G1 X130.226 Y117.585 E58.20789
G1 X129.815 Y118.156 E58.29232
G1 X129.341 Y118.677 E58.37684
G1 X128.811 Y119.141 E58.46137
G1 X128.232 Y119.541 E58.54582
G1 X127.611 Y119.873 E58.63032
G1 X126.957 Y120.133 E58.71477
G1 X126.277 Y120.317 E58.79931
G1 X125.581 Y120.423 E58.88379
G1 X125 Y120.45 E58.95358
G1 X114 Y120.45 E60.27358
G1 X113.297 Y120.41 E60.35808
G1 X112.603 Y120.291 E60.44258
G1 X111.928 Y120.093 E60.52699
G1 X111.279 Y119.821 E60.61143
G1 X110.665 Y119.476 E60.69595
G1 X110.629 Y119.45 E60.70128
G1 X98 Y119.45 E62.21676
G1 X97.297 Y119.41 E62.30125
G1 X96.603 Y119.291 E62.38575
G1 X95.928 Y119.093 E62.47016
G1 X95.279 Y118.821 E62.5546
G1 X94.665 Y118.476 E62.63912
G1 X94.094 Y118.065 E62.72354
G1 X93.573 Y117.591 E62.80806
G1 X93.109 Y117.061 E62.89259
G1 X92.709 Y116.482 E62.97704
G1 X92.377 Y115.861 E63.06154
G1 X92.117 Y115.207 E63.146
G1 X91.933 Y114.527 E63.23053
G1 X91.827 Y113.831 E63.31502
G1 X91.8 Y113.25 E63.38481
G1 X91.8 Y111.9 E63.54681
G1 X91.82 Y111.54 E63.59008
G1 X91.8 Y111.1 E63.64293
G1 X91.8 Y109.75 E63.80493
G1 X91.84 Y109.047 E63.88943
G1 X91.959 Y108.353 E63.97392
G1 X92.157 Y107.678 E64.05834
G1 X92.429 Y107.029 E64.14278
G1 X92.774 Y106.415 E64.22729
G1 X93.185 Y105.844 E64.31172
G1 X93.659 Y105.323 E64.39624
G0 F3600 X94.053 Y105.501
G1 F1800 X94.578 Y105.067 E64.47798
G1 X95.15 Y104.698 E64.55966
G1 X95.762 Y104.399 E64.6414
G1 X96.404 Y104.174 E64.72303
G1 X97.069 Y104.025 E64.80481
G1 X98 Y103.95 E64.9169
G1 X110.759 Y103.95 E66.44798
G1 X111.15 Y103.698 E66.5038
G1 X111.762 Y103.399 E66.58553
G1 X112.404 Y103.174 E66.66717
G1 X113.069 Y103.025 E66.74894
G1 X114 Y102.95 E66.86103
G1 X125 Y102.95 E68.18103
G1 X125.68 Y102.99 E68.26277
G1 X126.35 Y103.109 E68.34443
G1 X127.002 Y103.306 E68.42616
G1 X127.626 Y103.578 E68.50784
G1 X128.214 Y103.922 E68.58959
G1 X128.758 Y104.332 E68.67134
G1 X129.249 Y104.803 E68.75298
G1 X129.683 Y105.328 E68.83472
G1 X130.052 Y105.9 E68.91641
G1 X130.351 Y106.512 E68.99814
G1 X130.576 Y107.154 E69.07978
G1 X130.725 Y107.819 E69.16155
G1 X130.8 Y108.75 E69.27364
G1 X130.8 Y114.25 E69.93364
G1 X130.76 Y114.93 E70.01538
G1 X130.641 Y115.6 E70.09704
G1 X130.444 Y116.252 E70.17877
G1 X130.172 Y116.876 E70.26045
G1 X129.828 Y117.464 E70.3422
G1 X129.418 Y118.008 E70.42395
G1 X128.947 Y118.499 E70.50559
G1 X128.422 Y118.933 E70.58733
G1 X127.85 Y119.302 E70.66901
G1 X127.238 Y119.601 E70.75075
G1 X126.596 Y119.826 E70.83239
G1 X125.931 Y119.975 E70.91416
G1 X125 Y120.05 E71.02625
G1 X114 Y120.05 E72.34625
G1 X113.32 Y120.01 E72.42799
G1 X112.65 Y119.891 E72.50965
G1 X111.998 Y119.694 E72.59138
G1 X111.374 Y119.422 E72.67306
G1 X110.786 Y119.078 E72.75481
G1 X110.749 Y119.05 E72.76038
G1 X98 Y119.05 E74.29026
G1 X97.32 Y119.01 E74.372
G1 X96.65 Y118.891 E74.45366
G1 X95.998 Y118.694 E74.53539
G1 X95.374 Y118.422 E74.61708
G1 X94.786 Y118.078 E74.69883
G1 X94.242 Y117.668 E74.78057
G1 X93.751 Y117.197 E74.86222
G1 X93.317 Y116.672 E74.94395
G1 X92.948 Y116.1 E75.02564
G1 X92.649 Y115.488 E75.10737
G1 X92.424 Y114.846 E75.18901
G1 X92.275 Y114.181 E75.27079
G1 X92.2 Y113.25 E75.38287
G1 X92.2 Y111.9 E75.54487
G1 X92.227 Y111.438 E75.6004
G1 X92.2 Y111.1 E75.64109
G1 X92.2 Y109.75 E75.80309
G1 X92.24 Y109.07 E75.88483
G1 X92.359 Y108.4 E75.96649
G1 X92.556 Y107.748 E76.04823
G1 X92.828 Y107.124 E76.12991
G1 X93.172 Y106.536 E76.21166
G1 X93.582 Y105.992 E76.2934
G1 X94.053 Y105.501 E76.37505
G0 F3600 X94.445 Y105.685
G1 F1800 X94.965 Y105.284 E76.45385
G1 X95.529 Y104.948 E76.53263
G1 X96.131 Y104.684 E76.61151
G1 X96.76 Y104.494 E76.69036
G1 X97.407 Y104.383 E76.76913
G1 X98 Y104.35 E76.8404
G1 X110.879 Y104.35 E78.38588
G1 X110.965 Y104.284 E78.39889
G1 X111.529 Y103.948 E78.47767
G1 X112.131 Y103.684 E78.55655
G1 X112.76 Y103.494 E78.6354
G1 X113.407 Y103.383 E78.71417
G1 X114 Y103.35 E78.78544
G1 X125 Y103.35 E80.10544
G1 X125.656 Y103.39 E80.18431
G1 X126.302 Y103.509 E80.26313
G1 X126.929 Y103.706 E80.342
G1 X127.527 Y103.978 E80.42084
G1 X128.088 Y104.32 E80.49968
G1 X128.603 Y104.728 E80.57852
G1 X129.065 Y105.195 E80.65735
G1 X129.466 Y105.715 E80.73615
G1 X129.802 Y106.279 E80.81493
G1 X130.066 Y106.881 E80.89381
G1 X130.256 Y107.51 E80.97266
G1 X130.367 Y108.157 E81.05144
G1 X130.4 Y108.75 E81.12271
G1 X130.4 Y114.25 E81.78271
G1 X130.36 Y114.906 E81.86157
G1 X130.241 Y115.552 E81.9404
G1 X130.044 Y116.179 E82.01926
G1 X129.772 Y116.777 E82.0981
G1 X129.43 Y117.338 E82.17694
G1 X129.022 Y117.853 E82.25578
G1 X128.555 Y118.315 E82.33461
G1 X128.035 Y118.716 E82.41341
G1 X127.471 Y119.052 E82.49219
G1 X126.869 Y119.316 E82.57107
G1 X126.24 Y119.506 E82.64992
G1 X125.593 Y119.617 E82.7287
G1 X125 Y119.65 E82.79997
G1 X114 Y119.65 E84.11997
G1 X113.344 Y119.61 E84.19883
G1 X112.698 Y119.491 E84.27766
G1 X112.071 Y119.294 E84.35652
G1 X111.473 Y119.022 E84.43536
G1 X110.912 Y118.68 E84.5142
G1 X110.874 Y118.65 E84.52001
G1 X98 Y118.65 E86.06489
G1 X97.344 Y118.61 E86.14376
G1 X96.698 Y118.491 E86.22258
G1 X96.071 Y118.294 E86.30145
G1 X95.473 Y118.022 E86.38028
G1 X94.912 Y117.68 E86.45912
G1 X94.397 Y117.272 E86.53797
G1 X93.935 Y116.805 E86.6168
G1 X93.534 Y116.285 E86.6956
